Flat-ZOMG-dark/status/symbolic/bluetooth-disabled-symbolic.svg

<svg xmlns="http://www.w3.org/2000/svg" width="16" height="16" version="1.1">
 <path style="opacity:0.35;fill:#5c616c" d="M 6.9257812,0.00277202 C 6.8010596,0.01192356 6.6791607,0.04329201 6.5664062,0.09738139 6.2204118,0.26389301 6.0002998,0.61379527 6,0.99777202 V 3.0270689 L 8,4.5856626 V 3.0798032 L 10.384766,4.9880064 9.4492188,5.716522 11.076172,6.9841001 12.613281,5.7868345 C 13.123813,5.390218 13.129556,4.620714 12.625,4.216522 l -5,-3.99999998 C 7.4274184,0.05918304 7.1776215,-0.01647642 6.9257812,0.00277202 Z M 2.2324219,2.1208189 1,3.6969908 6,7.5973814 V 8.3981626 L 2.3867188,11.20871 c -0.435458,0.338893 -0.5141219,0.966456 -0.1757813,1.402343 0.338893,0.435458 0.9664565,0.514122 1.4023437,0.175781 L 6,10.931366 v 4.066406 c -3.499e-4,0.838869 0.970049,1.305407 1.625,0.78125 l 4.380859,-3.503906 1.761719,1.373047 L 15,12.071991 Z M 8.1425781,9.263397 10.382812,11.009491 8,12.915741 V 9.3747251 Z"/>
</svg>

<svg xmlns="http://www.w3.org/2000/svg" width="16" height="16" version="1.1">
 <defs>
  <style id="current-color-scheme" type="text/css">
   .ColorScheme-Text { color:#dfdfdf; } .ColorScheme-Highlight { color:#367bf0; } .ColorScheme-NeutralText { color:#ffcc44; } .ColorScheme-PositiveText { color:#3db47e; } .ColorScheme-NegativeText { color:#dd4747; }
  </style>
 </defs>
 <path style="opacity:0.35;fill:currentColor" class="ColorScheme-Text" d="m 6.9257818,0.00277181 c -0.124722,0.00915 -0.246621,0.04052 -0.359375,0.094609 -0.345995,0.1665116 -0.566107,0.5164139 -0.566407,0.9003906 V 3.0270683 l 2,1.5585937 V 3.079803 L 10.384766,4.9880062 9.4492188,5.7165218 11.076172,6.9840999 12.613281,5.7868343 C 13.123813,5.3902178 13.129556,4.6207138 12.625,4.2165218 L 7.6249998,0.21652181 c -0.197581,-0.1573389 -0.447378,-0.2329984 -0.699218,-0.21375 z m -4.69336,2.11804689 -1.232422,1.5761719 5,3.9003906 V 8.3981624 L 2.3867188,11.20871 c -0.435458,0.338893 -0.514122,0.966456 -0.175781,1.402343 0.338893,0.435458 0.966456,0.514122 1.402344,0.175781 l 2.386718,-1.855468 v 4.066406 c -3.5e-4,0.838869 0.970049,1.305407 1.625,0.78125 L 12.005859,12.275116 13.767578,13.648163 15,12.071991 Z m 5.910156,7.1425781 2.2402342,1.7460942 -2.3828122,1.90625 V 9.3747249 Z"/>
</svg>
